X: 1
T: HASTE TO THE WEDDING (RORY O'MORE)
S: News
O: Adderbury
P: A.(AB)6
B: Morris Ring
Z: 2005 John Chambers <jc@trillian.mit.edu>
M: 6/8
L: 1/8
K: F
P: A
d | cAF AFF | AFF  F2d    | cA[AF] AGF | EGG G2d |
    cAF AGF | ABc Hd2c/B/ | A[cB]c cde | fFF F2 ||
P: B
f | fed dcA | BAG    F2E | DEF    FGA | Bdc c2f |
    fed dcA | B[cA]d ddc | A[cB]c cde | fFF F2 ||
